docs/assets/github.svg

<svg width="36" height="37" viewBox="0 0 36 37" fill="none" xmlns="http://www.w3.org/2000/svg">
<circle cx="18" cy="18.4297" r="18" fill="#F0F3FF"/>
<g clip-path="url(#clip0)">
<path d="M18 8.84707C12.475 8.84707 8 13.2471 8 18.6737C8 23.0162 10.865 26.6987 14.8375 27.9971C15.3375 28.0896 15.5208 27.7854 15.5208 27.5246C15.5208 27.2912 15.5125 26.6729 15.5083 25.8537C12.7267 26.4462 12.14 24.5354 12.14 24.5354C11.685 23.4012 11.0275 23.0979 11.0275 23.0979C10.1217 22.4887 11.0975 22.5012 11.0975 22.5012C12.1017 22.5696 12.6292 23.5137 12.6292 23.5137C13.5208 25.0162 14.97 24.5821 15.5417 24.3312C15.6317 23.6954 15.8892 23.2629 16.175 23.0171C13.9542 22.7712 11.62 21.9262 11.62 18.1612C11.62 17.0887 12.0075 16.2121 12.6492 15.5246C12.5367 15.2762 12.1992 14.2771 12.7367 12.9237C12.7367 12.9237 13.5742 12.6604 15.4867 13.9312C16.2867 13.7129 17.1367 13.6046 17.9867 13.5996C18.8367 13.6046 19.6867 13.7129 20.4867 13.9312C22.3867 12.6604 23.2242 12.9237 23.2242 12.9237C23.7617 14.2771 23.4242 15.2762 23.3242 15.5246C23.9617 16.2121 24.3492 17.0887 24.3492 18.1612C24.3492 21.9362 22.0117 22.7671 19.7867 23.0087C20.1367 23.3037 20.4617 23.9062 20.4617 24.8271C20.4617 26.1421 20.4492 27.1987 20.4492 27.5179C20.4492 27.7754 20.6242 28.0829 21.1367 27.9846C25.1375 26.6946 28 23.0096 28 18.6737C28 13.2471 23.5225 8.84707 18 8.84707Z" fill="#183C75"/>
</g>
<defs>
<clipPath id="clip0">
<rect width="20" height="20" fill="white" transform="translate(8 8.42969)"/>
</clipPath>
</defs>
</svg>

<svg xmlns="http://www.w3.org/2000/svg" fill="none" viewBox="0 0 36 37"><circle cx="18" cy="18.43" r="18" fill="#F0F3FF"/><g clip-path="url(#a)"><path fill="#183C75" d="M18 8.847c-5.525 0-10 4.4-10 9.827 0 4.342 2.865 8.025 6.838 9.323.5.093.683-.212.683-.472 0-.234-.009-.852-.013-1.671-2.781.592-3.368-1.319-3.368-1.319-.455-1.134-1.113-1.437-1.113-1.437-.905-.61.07-.597.07-.597 1.005.069 1.532 1.013 1.532 1.013.892 1.502 2.341 1.068 2.913.817.09-.636.347-1.068.633-1.314-2.22-.246-4.555-1.09-4.555-4.856 0-1.072.388-1.949 1.03-2.636-.113-.249-.45-1.248.087-2.601 0 0 .837-.264 2.75 1.007.8-.218 1.65-.326 2.5-.331.85.005 1.7.113 2.5.331 1.9-1.27 2.737-1.007 2.737-1.007.538 1.353.2 2.352.1 2.6a3.77 3.77 0 0 1 1.025 2.637c0 3.775-2.337 4.606-4.562 4.848.35.295.675.897.675 1.818 0 1.315-.013 2.372-.013 2.69 0 .258.175.566.688.468 4-1.29 6.863-4.975 6.863-9.311 0-5.427-4.477-9.827-10-9.827z"/></g><defs><clipPath id="a"><path fill="#fff" d="M0 0H20V20H0z" transform="translate(8 8.43)"/></clipPath></defs></svg>
